app/static/icons/fb.svg

<svg width="38" height="37" viewBox="0 0 38 37" fill="none" xmlns="http://www.w3.org/2000/svg">
<path fill-rule="evenodd" clip-rule="evenodd" d="M18.8411 0C8.64187 0 0.373779 8.28273 0.373779 18.5C0.373779 28.7173 8.64187 37 18.8411 37C29.0403 37 37.3084 28.7173 37.3084 18.5C37.3084 8.28273 29.0403 0 18.8411 0ZM20.766 19.3126V29.3776H16.609V19.313H14.5321V15.8446H16.609V13.7621C16.609 10.9326 17.7817 9.25 21.1135 9.25H23.8874V12.7188H22.1535C20.8565 12.7188 20.7707 13.2036 20.7707 14.1082L20.766 15.8442H23.907L23.5395 19.3126H20.766Z" fill="#9A9A9A"/>
</svg>

<svg xmlns="http://www.w3.org/2000/svg" width="38" height="37" fill="none"><path fill-rule="evenodd" d="M18.84 0C8.642 0 .374 8.283.374 18.5S8.642 37 18.84 37s18.467-8.283 18.467-18.5S29.04 0 18.84 0zm1.925 19.313v10.065H16.61V19.313h-2.077v-3.468h2.077v-2.082c0-2.83 1.173-4.512 4.504-4.512h2.774v3.47h-1.734c-1.297 0-1.383.485-1.383 1.39l-.005 1.736h3.14l-.367 3.468h-2.774z" fill="#9a9a9a"/></svg>
